svg/UnitedNationsOCHA-Humanitarian/clusters_water_sanitation_and_hygiene_icon_box.svg

<svg xmlns="http://www.w3.org/2000/svg" viewBox="0 0 32 32" enable-background="new 0 0 32 32"><path fill="#407cca" d="m25.6 0h-19.2c-3.52 0-6.4 2.88-6.4 6.4v19.2c0 3.52 2.88 6.4 6.4 6.4h19.2c3.521 0 6.4-2.88 6.4-6.4v-19.2c0-3.52-2.88-6.4-6.4-6.4m-4.09 25.23c0-.675 2.02-5.603 2.464-6.274.448.896 2.466 5.6 2.466 6.274-.0001 3.692-4.93 3.692-4.93 0m5.094-7.181h-5.116c-.454 0-.825-.369-.825-.826 0-.281.148-.52.364-.667-.078-.908-.35-1.381-1.086-1.381-2.466 0-2.466 0-2.466 0-.672 1.348-1.792 2.02-3.136 2.02-1.345 0-2.24-.667-2.912-2.02-5.709 0-6.708 0-6.854 0v-4.93c4.163 0 5.644 0 6.161 0v-1.582c0-.455.37-.826.825-.826h2.104v-1.014c-.175-.098-.32-.228-.442-.387-2.504 0-3.896 0-4.661 0-.276.363-.694.614-1.185.614-.844 0-1.526-.682-1.526-1.525 0-.843.682-1.527 1.526-1.527.503 0 .93.267 1.206.646 1.791 0 3.327 0 4.622 0 .276-.379.706-.646 1.21-.646.506 0 .931.267 1.212.646 2.271 0 3.519 0 4.186 0 .277-.379.705-.646 1.21-.646.841 0 1.524.684 1.524 1.527 0 .843-.684 1.525-1.524 1.525-.494 0-.911-.251-1.194-.614-2.422 0-3.626 0-4.222 0-.12.156-.262.283-.434.385v1.016h1.983c.456 0 .826.371.826.826l.028 1.582c5.058 0 5.07 0 5.07 0 2.17 0 3.808 1.559 3.808 3.361 0 1.489 0 2.337 0 2.846.317.116.544.414.544.77 0 .458-.37.827-.826.827"/></svg>

<?xml version="1.0" encoding="utf-8"?>
<!-- Generator: Adobe Illustrator 16.0.3, SVG Export Plug-In . SVG Version: 6.00 Build 0)  -->
<!DOCTYPE svg PUBLIC "-//W3C//DTD SVG 1.1//EN" "http://www.w3.org/Graphics/SVG/1.1/DTD/svg11.dtd">
<svg version="1.1" id="Layer_1" xmlns="http://www.w3.org/2000/svg" xmlns:xlink="http://www.w3.org/1999/xlink" x="0px" y="0px"
	 width="32px" height="32px" viewBox="0 0 32 32" enable-background="new 0 0 32 32" xml:space="preserve">
<path fill="#407CCA" d="M25.6,0H6.4C2.88,0,0,2.88,0,6.4v19.2C0,29.12,2.88,32,6.4,32h19.2c3.521,0,6.4-2.88,6.4-6.4V6.4
	C32,2.88,29.12,0,25.6,0z M21.51,25.232c0-0.675,2.017-5.603,2.464-6.274c0.448,0.896,2.466,5.6,2.466,6.274
	C26.439,28.924,21.51,28.924,21.51,25.232z M26.604,18.051h-5.116c-0.454,0-0.825-0.369-0.825-0.826c0-0.281,0.148-0.52,0.364-0.667
	c-0.078-0.908-0.35-1.381-1.086-1.381c-2.466,0-2.466,0-2.466,0c-0.672,1.348-1.792,2.015-3.136,2.015
	c-1.345,0-2.24-0.667-2.912-2.015c-5.709,0-6.708,0-6.854,0v-4.93c4.163,0,5.644,0,6.161,0V8.665c0-0.455,0.37-0.826,0.825-0.826
	h2.104V6.825c-0.175-0.098-0.32-0.228-0.442-0.387c-2.504,0-3.896,0-4.661,0C8.284,6.801,7.866,7.052,7.375,7.052
	c-0.844,0-1.526-0.682-1.526-1.525C5.849,4.684,6.531,4,7.375,4c0.503,0,0.93,0.267,1.206,0.646c1.791,0,3.327,0,4.622,0
	C13.479,4.267,13.909,4,14.413,4c0.506,0,0.931,0.267,1.212,0.646c2.271,0,3.519,0,4.186,0C20.088,4.267,20.516,4,21.021,4
	c0.841,0,1.524,0.684,1.524,1.527c0,0.843-0.684,1.525-1.524,1.525c-0.494,0-0.911-0.251-1.194-0.614c-2.422,0-3.626,0-4.222,0
	c-0.12,0.156-0.262,0.283-0.434,0.385v1.016h1.983c0.456,0,0.826,0.371,0.826,0.826l0.028,1.582c5.058,0,5.07,0,5.07,0
	c2.17,0,3.808,1.559,3.808,3.361c0,1.489,0,2.337,0,2.846c0.317,0.116,0.544,0.414,0.544,0.77
	C27.43,17.682,27.06,18.051,26.604,18.051z"/>
</svg>
